vendor/shopware/storefront/Resources/app/storefront/dist/assets/icon/solid/x.svg

<svg xmlns="http://www.w3.org/2000/svg" width="16" height="16" viewBox="0 0 16 16">
  <path fill="#758CA3" fill-rule="evenodd" d="M8,6.58578644 L11.2928932,3.29289322 C11.6834175,2.90236893 12.3165825,2.90236893 12.7071068,3.29289322 C13.0976311,3.68341751 13.0976311,4.31658249 12.7071068,4.70710678 L9.41421356,8 L12.7071068,11.2928932 C13.0976311,11.6834175 13.0976311,12.3165825 12.7071068,12.7071068 C12.3165825,13.0976311 11.6834175,13.0976311 11.2928932,12.7071068 L8,9.41421356 L4.70710678,12.7071068 C4.31658249,13.0976311 3.68341751,13.0976311 3.29289322,12.7071068 C2.90236893,12.3165825 2.90236893,11.6834175 3.29289322,11.2928932 L6.58578644,8 L3.29289322,4.70710678 C2.90236893,4.31658249 2.90236893,3.68341751 3.29289322,3.29289322 C3.68341751,2.90236893 4.31658249,2.90236893 4.70710678,3.29289322 L8,6.58578644 Z"/>
</svg>

<svg xmlns="http://www.w3.org/2000/svg" width="16" height="16" viewBox="0 0 16 16"><path fill="#758CA3" fill-rule="evenodd" d="m8 6.5858 3.2929-3.293c.3905-.3904 1.0237-.3904 1.4142 0 .3905.3906.3905 1.0238 0 1.4143L9.4142 8l3.293 3.2929c.3904.3905.3904 1.0237 0 1.4142-.3906.3905-1.0238.3905-1.4143 0L8 9.4142l-3.2929 3.293c-.3905.3904-1.0237.3904-1.4142 0-.3905-.3906-.3905-1.0238 0-1.4143L6.5858 8l-3.293-3.2929c-.3904-.3905-.3904-1.0237 0-1.4142.3906-.3905 1.0238-.3905 1.4143 0L8 6.5858z"/></svg>
